build/svg/cmd/sc_tablenumberformatdialog.svg

<?xml version="1.0" encoding="UTF-8" standalone="no"?>
<svg
   xmlns:dc="http://purl.org/dc/elements/1.1/"
   xmlns:cc="http://creativecommons.org/ns#"
   xmlns:rdf="http://www.w3.org/1999/02/22-rdf-syntax-ns#"
   xmlns:svg="http://www.w3.org/2000/svg"
   xmlns="http://www.w3.org/2000/svg"
   xmlns:sodipodi="http://sodipodi.sourceforge.net/DTD/sodipodi-0.dtd"
   xmlns:inkscape="http://www.inkscape.org/namespaces/inkscape"
   viewBox="0 0 16 16"
   version="1.1"
   id="svg6"
   sodipodi:docname="sc_tablenumberformatdialog.svg"
   inkscape:version="0.92.5 (2060ec1f9f, 2020-04-08)"
   inkscape:export-filename="/home/jupiter007/Libreoffice yaru theme fullcolor/build/cmd/sc_tablenumberformatdialog.png"
   inkscape:export-xdpi="95"
   inkscape:export-ydpi="95">
  <metadata
     id="metadata12">
    <rdf:RDF>
      <cc:Work
         rdf:about="">
        <dc:format>image/svg+xml</dc:format>
        <dc:type
           rdf:resource="http://purl.org/dc/dcmitype/StillImage" />
      </cc:Work>
    </rdf:RDF>
  </metadata>
  <defs
     id="defs10" />
  <sodipodi:namedview
     pagecolor="#ffffff"
     bordercolor="#666666"
     borderopacity="1"
     objecttolerance="10"
     gridtolerance="10"
     guidetolerance="10"
     inkscape:pageopacity="0"
     inkscape:pageshadow="2"
     inkscape:window-width="1920"
     inkscape:window-height="1011"
     id="namedview8"
     showgrid="true"
     inkscape:zoom="59"
     inkscape:cx="3.676597"
     inkscape:cy="7.5697929"
     inkscape:window-x="0"
     inkscape:window-y="32"
     inkscape:window-maximized="1"
     inkscape:current-layer="svg6"
     inkscape:snap-global="true">
    <inkscape:grid
       type="xygrid"
       id="grid822" />
  </sodipodi:namedview>
  <path
     sodipodi:nodetypes="cccscsccccccccscscccccc"
     inkscape:connector-curvature="0"
     id="path4237-1"
     d="M 4.9941692,0.999434 C 3.7359682,1.0145521 2.815279,0.9691978 2.0625294,1.3841899 1.686164,1.591686 1.3892972,1.9435978 1.2246383,2.3822498 1.0599643,2.8209018 1.000021,3.341834 1.000021,3.999434 v 1.4882655 6.5128665 c 0,0.6576 0.059906,1.17857 0.2246173,1.617185 0.1646741,0.438614 0.4615295,0.788522 0.8378911,0.996094 0.7527194,0.415106 1.6735408,0.371528 2.9316398,0.386721 h 0.002 6.0058618 0.0038 c 1.25819,-0.01512 2.17889,0.03024 2.93164,-0.384793 0.376365,-0.207496 0.673221,-0.55937 0.837891,-0.998022 C 14.939885,13.179061 14.999979,13 14.999979,12.000566 V 5.4662315 3.999434 c 0,-0.6576 -0.05991,-1.17857 -0.224617,-1.6171842 C 14.610666,1.9436356 14.313811,1.5937269 13.937449,1.3861553 13.184681,0.9710119 12.263848,1.0146277 11.00576,0.999434 h -0.002 -6.0058614 z"
     style="font-style:normal;font-variant:normal;font-weight:normal;font-stretch:normal;font-size:15px;line-height:125%;font-family:Ubuntu;-inkscape-font-specification:Ubuntu;text-align:center;letter-spacing:0px;word-spacing:0px;writing-mode:lr-tb;text-anchor:middle;display:inline;opacity:0.6;fill:#000000;fill-opacity:1;stroke:none;stroke-width:0.99980205" />
  <path
     inkscape:connector-curvature="0"
     id="path1993"
     d="M 5.9833976,2.026634 C 4.4268181,2.0379726 4.8734057,2.0152955 3.3234554,2.0655632 2.8622283,2.1082718 2.3072689,2.2719254 2.1681181,2.7755097 1.9491322,3.410848 2.0597212,4.109305 2.0223039,4.757418 c -0.00794,2.2971225 -0.023055,5.596975 0.021543,7.886348 0.039118,0.461934 0.2025449,1.012649 0.6987553,1.163641 0.6324586,0.22526 1.2841474,0.122835 1.9359761,0.154205 1.4242357,0.0076 2.8505627,0.01134 4.2764197,0.01134 1.70453,3.4e-4 1.40839,-0.0038 3.107189,-0.0189 0.511911,-0.01134 1.183699,0.0189 1.584745,-0.405165 0.4211,-0.539793 0.287093,-1.268032 0.322734,-1.903786 0.01172,-2.444334 0.02759,-5.9116574 -0.02192,-8.357353 C 13.898459,2.8857207 13.777741,2.4248073 13.372606,2.2432766 12.704435,1.9492293 11.946401,2.0754655 11.246682,2.0376703 9.492278,2.0263317 7.737809,2.0263317 5.9833712,2.0263317 Z"
     style="opacity:1;vector-effect:none;fill:#fa9381;fill-opacity:1;stroke:none;stroke-width:1;stroke-linecap:round;stroke-linejoin:bevel;stroke-miterlimit:4;stroke-dasharray:none;stroke-dashoffset:0;stroke-opacity:1"
     sodipodi:nodetypes="cccccccscccccccc" />
  <path
     style="opacity:1;fill:#ffffff;fill-opacity:1;stroke:none;stroke-width:8.77999973;stroke-linejoin:round;stroke-miterlimit:4;stroke-dasharray:none;stroke-opacity:1"
     d="M 7.8476562 4.0039062 A 4 4 0 0 0 4.5351562 6 A 4 4 0 0 0 5.171875 10.828125 A 4 4 0 0 0 10 11.464844 L 9.5 10.597656 A 3 3 0 0 1 5.8789062 10.123047 A 3 3 0 0 1 5.4023438 6.5 A 3 3 0 0 1 8.7753906 5.1015625 A 3 3 0 0 1 11 8 C 11 9 11 9 10 9 L 10 8 L 10 6 L 9 6 L 9 6.2714844 A 2 2 0 0 0 8 6 A 2 2 0 0 0 6 8 A 2 2 0 0 0 8 10 A 2 2 0 0 0 9 9.7304688 L 9 10 L 10 10 C 11 10 12 10 12 8 A 4 4 0 0 0 11.492188 6.0507812 A 4 4 0 0 0 9.0351562 4.1367188 A 4 4 0 0 0 7.8476562 4.0039062 z M 8 7 A 1 1 0 0 1 9 8 A 1 1 0 0 1 8 9 A 1 1 0 0 1 7 8 A 1 1 0 0 1 8 7 z "
     id="path819" />
</svg>

<svg xmlns="http://www.w3.org/2000/svg" viewBox="0 0 16 16"><path d="M4.994 1c-1.258.015-2.179-.03-2.931.384-.377.208-.674.56-.838.998C1.06 2.821 1 3.342 1 4v8.002c0 .657.06 1.178.225 1.617.164.438.461.788.838.996.752.415 1.673.371 2.931.387h6.012c1.258-.016 2.179.03 2.931-.385.377-.208.674-.56.838-.998C14.94 13.179 15 13 15 12V3.999c0-.657-.06-1.178-.225-1.617a1.875 1.875 0 00-.838-.996c-.752-.415-1.673-.371-2.931-.387H4.998z" style="line-height:125%;-inkscape-font-specification:Ubuntu;text-align:center" font-weight="400" font-size="15" font-family="Ubuntu" letter-spacing="0" word-spacing="0" text-anchor="middle" opacity=".6"/><path d="M5.983 2.027c-1.556.011-1.11-.012-2.66.039-.46.042-1.016.206-1.155.71-.219.635-.108 1.333-.146 1.981-.008 2.298-.023 5.597.022 7.887.039.462.202 1.012.699 1.163.632.226 1.284.123 1.936.155 1.424.007 2.85.011 4.276.011 1.705 0 1.408-.004 3.107-.019.512-.011 1.184.019 1.585-.405.421-.54.287-1.268.323-1.904.011-2.444.027-5.912-.022-8.357-.05-.402-.17-.863-.575-1.045-.669-.294-1.427-.168-2.126-.205-1.755-.012-3.51-.012-5.264-.012z" fill="#fa9381"/><path d="M7.848 4.004A4 4 0 004.535 6a4 4 0 00.637 4.828 4 4 0 004.828.637l-.5-.867a3 3 0 01-3.621-.475A3 3 0 015.402 6.5a3 3 0 013.373-1.398A3 3 0 0111 8c0 1 0 1-1 1V6H9v.271A2 2 0 008 6a2 2 0 00-2 2 2 2 0 002 2 2 2 0 001-.27V10h1c1 0 2 0 2-2a4 4 0 00-.508-1.95 4 4 0 00-2.457-1.913 4 4 0 00-1.187-.133zM8 7a1 1 0 011 1 1 1 0 01-1 1 1 1 0 01-1-1 1 1 0 011-1z" fill="#fff"/></svg>
